assets/img/slider-cards/ev-1.svg

<svg width="60" height="60" viewBox="0 0 60 60" fill="none" xmlns="http://www.w3.org/2000/svg">
<path d="M54.75 45.8438L45.0469 9.60944C44.7888 8.64915 44.1599 7.83068 43.2984 7.33403C42.4369 6.83737 41.4135 6.70319 40.4531 6.96101L33.2109 8.90632L32.9766 8.97663C32.6272 8.51836 32.177 8.14676 31.6607 7.89069C31.1445 7.63461 30.5762 7.50095 30 7.50007H22.5C21.8402 7.50184 21.1929 7.67986 20.625 8.01569C20.0571 7.67986 19.4098 7.50184 18.75 7.50007H11.25C10.2554 7.50007 9.30161 7.89516 8.59835 8.59842C7.89509 9.30168 7.5 10.2555 7.5 11.2501V48.7501C7.5 49.7446 7.89509 50.6985 8.59835 51.4017C9.30161 52.105 10.2554 52.5001 11.25 52.5001H18.75C19.4098 52.4983 20.0571 52.3203 20.625 51.9844C21.1929 52.3203 21.8402 52.4983 22.5 52.5001H30C30.9946 52.5001 31.9484 52.105 32.6516 51.4017C33.3549 50.6985 33.75 49.7446 33.75 48.7501V25.4063L40.2656 49.711C40.4779 50.5119 40.9496 51.22 41.6068 51.7246C42.264 52.2291 43.0699 52.5018 43.8984 52.5001C44.2219 52.4944 44.544 52.4552 44.8594 52.3829L52.1016 50.4376C53.0619 50.1795 53.8803 49.5505 54.377 48.6891C54.8736 47.8276 55.0078 46.8042 54.75 45.8438ZM41.4141 10.5938L42.8906 16.0079L35.6484 17.9532L34.1719 12.5391L41.4141 10.5938ZM30 11.2501V39.3751H22.5V11.2501H30ZM18.75 11.2501V16.8751H11.25V11.2501H18.75ZM30 48.7501H22.5V43.1251H30V48.7501ZM51.1406 46.8048L43.8984 48.7501L42.4219 43.3126L49.6875 41.3673L51.1406 46.8048Z" fill="#00A0E3"/>
</svg>

<svg width="60" height="60" fill="none" xmlns="http://www.w3.org/2000/svg"><path d="M54.75 45.844L45.047 9.609a3.75 3.75 0 00-4.594-2.648l-7.242 1.945-.234.07A3.75 3.75 0 0030 7.5h-7.5c-.66.002-1.307.18-1.875.516A3.703 3.703 0 0018.75 7.5h-7.5a3.75 3.75 0 00-3.75 3.75v37.5a3.75 3.75 0 003.75 3.75h7.5a3.703 3.703 0 001.875-.516 3.703 3.703 0 001.875.516H30a3.75 3.75 0 003.75-3.75V25.406l6.516 24.305a3.75 3.75 0 003.632 2.79 4.67 4.67 0 00.961-.118l7.243-1.945a3.75 3.75 0 002.648-4.594zm-13.336-35.25l1.477 5.414-7.243 1.945-1.476-5.414 7.242-1.945zM30 11.25v28.125h-7.5V11.25H30zm-11.25 0v5.625h-7.5V11.25h7.5zM30 48.75h-7.5v-5.625H30v5.625zm21.14-1.945l-7.242 1.945-1.476-5.437 7.266-1.946 1.453 5.438z" fill="#00A0E3"/></svg>
